X:1
T:Title
%%score { ( 1 3 ) | ( 2 4 ) }
L:1/8
Q:1/4=100
M:4/4
K:F
V:1 treble nm="Grand Piano"
V:3 treble 
V:2 bass 
V:4 bass 
V:1
 A2 B2 G2 A2 | [CF]2 [B,DG]2 C->[CD] z B, | C2 F2 G2 AB | [CFA]2 [CF]2 [CEG]4 | %4
w: D.~B.~Towner * * *||||
 [CFA]2 [DFB]2 [B,DG]2 [CA]2 | [CF]2 [B,DG]2 C->[CD] z B, | C2 F2 A2 [DFB]2 | [B,EG]3 [CEA] F4 | %8
w: ||||
 c2 d2 c>B A2 | A2 B2 A>G F2 | [EG]2 [FA]2 [GB]2 [EG]2 | [FA]2 [F=B]2 [Ec]4 | c2 d2 c>B A2 | %13
w: |||||
 A2 B2 A>G F2 | [FG]2 [F_A]2 [F=A]2 [EB]2 | [EG]3 [EA] F4 |] %16
w: |||
V:2
 [F,CF]2 [F,DF]2 [F,B,D]2 [F,C]2 | A,,2 B,,2 z z/ F,/ [C,E,]2 | z4 z2 [F,F]2 | F,2 A,,2 C,4 | %4
 F,2 F,2 F,2 F,2 | A,,2 B,,2 z z/ F,/ [C,E,]2 | [F,A,]2 [F,A,C]2 [F,CF]2 B,,2 | C,3 C, [F,A,]4 | %8
 [F,A,F]2 [F,B,F]2 [F,F]->[F,DF] [F,CF]2 | [F,CF]2 [F,DF]2 [CF]>[B,C] [F,A,C]2 | %10
 [C,C]2 [C,C]2 [C,C]2 [C,C]2 | [F,C]2 [D,G,]2 [C,G,]4 | [F,A,F]2 [F,B,F]2 [F,F]->[F,DF] [F,CF]2 | %13
 [F,CF]2 [F,DF]2 [CF]>[B,C] [F,A,C]2 | [D,=B,]2 [D,B,]2 [C,C]2 [C,G,]2 | [C,B,]3 [C,C] [F,A,]4 |] %16
V:3
 x8 | z4 [G,E]2 C2 | x8 | x8 | x8 | z4 [G,E]2 C2 | x8 | x8 | x8 | x8 | x8 | x8 | x8 | x8 | x8 | %15
 x8 |] %16
V:4
 x8 | z4 C,2 z2 | [F,A,]2 [F,A,C]2 [F,B,C]2 CD | x8 | x8 | z4 C,2 z2 | x8 | x8 | z4 A,2 z2 | %9
 z4 F,2 z2 | x8 | x8 | z4 A,2 z2 | z4 F,2 z2 | x8 | x8 |] %16

